assets/images/icons/home.svg

<svg xmlns="http://www.w3.org/2000/svg" viewBox="0 0 24 24"><path d="M12 2.1L1 12h3v9h6v-7h4v7h6v-9h3L12 2.1z"/></svg>

<svg xmlns="http://www.w3.org/2000/svg" viewBox="0 0 24 24">
    <path d="M 12 2.0996094 L 1 12 L 4 12 L 4 21 L 10 21 L 10 14 L 14 14 L 14 21 L 20 21 L 20 12 L 23 12 L 12 2.0996094 z"></path>
</svg>
